X: 7868
T:Square da Mizzen
R:Reel
O:Shetland
N:fr the Cullivoe Fiddlers ()
M:4/4
D:School of Scottish Studies
K:D
B|\
A2FA BA B2|AGFD ED(E2|E)(A A)F ABde|dBAF D3::
A|\
d2fd edfd|egfe dBAB|d2fd edfd|egfe dBAF|\
M:2/4
D6:|
